X:74
T:Cillian's Midnight Dip
S: Lunasa - Redwood Track 5
M:4/4
F:http://blackrosetheband.googlepages.com/ABCTUNES.ABC May 2009
R:reel
K:F
|:d3c d2fd | cAAA FAGF | Gz gf gbag | fdcA GABc |
d3c d2fd | cAAA FAGF | Gz gf gbag |1 fdcA GABc :|2 fdcA AGG2||
|:gf (3def g2 c'b | addd b2ab | gabg c'3b | (3gfe dc dggg|
gf (3def g2 c'b | addd b2ab | c'3b ga (3bag |1 fdcA AGG2 :|2 fdcA AGAc||
